glitch-avatars-svg/base_avatar/Avatar.fla/placeholder symbols 2/Avatar_backLegUpperRight2.svg

<?xml version="1.0" encoding="UTF-8" standalone="no"?>
<!-- Generator: flash2svg, http://dissentgraphics.com/tools/flash2svg -->

<svg
   xmlns:dc="http://purl.org/dc/elements/1.1/"
   xmlns:cc="http://creativecommons.org/ns#"
   xmlns:rdf="http://www.w3.org/1999/02/22-rdf-syntax-ns#"
   xmlns:svg="http://www.w3.org/2000/svg"
   xmlns="http://www.w3.org/2000/svg"
   xmlns:sodipodi="http://sodipodi.sourceforge.net/DTD/sodipodi-0.dtd"
   xmlns:inkscape="http://www.inkscape.org/namespaces/inkscape"
   id="Avatar"
   image-rendering="auto"
   version="1.1"
   x="0px"
   y="0px"
   width="15.374861"
   height="13.437569"
   viewBox="0 0 15.374861 13.437569"
   inkscape:version="0.48.4 r9939"
   sodipodi:docname="Avatar_backLegUpperRight2.svg">
  <metadata
     id="metadata3320">
    <rdf:RDF>
      <cc:Work
         rdf:about="">
        <dc:format>image/svg+xml</dc:format>
        <dc:type
           rdf:resource="http://purl.org/dc/dcmitype/StillImage" />
      </cc:Work>
    </rdf:RDF>
  </metadata>
  <sodipodi:namedview
     pagecolor="#ffffff"
     bordercolor="#666666"
     borderopacity="1"
     objecttolerance="10"
     gridtolerance="10"
     guidetolerance="10"
     inkscape:pageopacity="0"
     inkscape:pageshadow="2"
     inkscape:window-width="640"
     inkscape:window-height="480"
     id="namedview3318"
     showgrid="false"
     fit-margin-top="0"
     fit-margin-left="0"
     fit-margin-right="0"
     fit-margin-bottom="0"
     inkscape:zoom="1.8730159"
     inkscape:cx="15.905137"
     inkscape:cy="1.3832624"
     inkscape:window-x="0"
     inkscape:window-y="0"
     inkscape:window-maximized="0"
     inkscape:current-layer="Avatar" />
  <defs
     id="defs3297" />
  <g
     id="backLegUpperRight3"
     overflow="visible"
     transform="translate(2.9652807,2.8688182)"
     style="overflow:visible">
    <g
       id="backLegUpperRight2_4">
      <g
         id="element2">
        <path
           id="path10"
           d="M 8.203,-0.427 Q 6.935,-1.56 5.492,-2.048 c -1.268,-0.646 -3.017,-0.87 -5.248,-0.673 1.706,-0.065 3.411,0.309 5.161,1.117 1.749,0.76 3.192,1.784 4.329,3.071 1.093,1.194 1.706,2.321 1.881,3.43 0.131,1.111 0.087,1.893 -0.175,2.251 -0.044,0.052 -0.132,0.204 -0.219,0.355 l 0.044,-0.1 C 11.221,7.455 11.221,7.503 11.177,7.555 11.134,7.704 11.046,7.856 10.959,8.008 10.478,9.062 9.647,9.605 8.466,9.586 8.116,9.561 7.766,9.633 7.416,9.705 6.892,9.399 6.323,9.144 5.755,8.988 4.705,8.619 3.699,8.199 2.737,7.63 2.693,7.585 2.65,7.588 2.606,7.542 2.125,7.428 1.6,7.268 1.119,7.105 1.031,7.062 0.55,6.705 -0.324,6.13 -1.243,5.51 -2.117,4.253 -2.861,2.404 -2.904,2.358 -2.904,2.358 -2.948,2.312 c -0.044,0.247 0,0.536 0.087,0.822 0.088,0.676 0.263,1.249 0.525,1.67 0.35,0.999 1.225,1.72 2.58,2.214 0.044,0.045 0.088,0.042 0.132,0.039 1.618,0.818 3.279,1.535 4.941,2.252 0.481,0.211 1.006,0.42 1.487,0.534 0.7,0.343 1.356,0.445 1.968,0.356 -0.044,0.051 -0.131,0.057 -0.175,0.109 0.7,0.099 1.356,-0.188 2.012,-0.865 0.218,-0.258 0.306,-0.507 0.262,-0.65 -0.306,0.458 -0.656,0.822 -1.093,0.998 0.393,-0.27 0.743,-0.585 1.049,-1.044 l 0,-0.049 C 10.915,8.546 10.959,8.446 11.002,8.394 12.577,6.926 12.795,5.256 11.658,3.433 11.352,2.918 11.002,2.405 10.609,1.993 L 10.587,1.971 10.609,1.993 C 10.565,1.948 10.478,1.856 10.434,1.81 9.69,1.032 8.947,0.254 8.203,-0.427 z"
           inkscape:connector-curvature="0"
           style="fill:#663300" />
        <path
           id="path11"
           d="m -1.811,-0.052 c -0.044,0.149 -0.306,0.361 -0.7,0.631 -0.131,0.058 -0.175,0.158 -0.175,0.255 -0.043,0.101 -0.087,0.201 -0.131,0.252 0,0.195 0.044,0.436 0.131,0.722 C -2.773,1.716 -2.861,1.625 -2.904,1.53 -2.948,1.777 -2.948,2.069 -2.948,2.312 -2.904,2.358 -2.904,2.358 -2.861,2.404 -2.117,4.253 -1.243,5.51 -0.324,6.13 0.55,6.705 1.031,7.062 1.119,7.105 1.6,7.268 2.125,7.428 2.606,7.542 2.65,7.588 2.693,7.585 2.737,7.63 c 0.962,0.569 1.968,0.989 3.018,1.358 0.568,0.156 1.137,0.411 1.661,0.717 0.35,-0.072 0.7,-0.144 1.05,-0.119 1.181,0.019 2.012,-0.524 2.493,-1.578 0.087,-0.152 0.175,-0.304 0.218,-0.453 0.044,-0.052 0.044,-0.1 0.088,-0.152 l -0.044,0.1 C 11.308,7.352 11.396,7.2 11.44,7.148 11.702,6.79 11.746,6.008 11.615,4.897 11.44,3.788 10.827,2.661 9.734,1.467 8.597,0.18 7.154,-0.844 5.405,-1.604 3.655,-2.412 1.95,-2.786 0.244,-2.721 c 0.7,0.002 0.962,0.082 0.744,0.146 -0.394,0.074 -0.787,0.198 -1.181,0.37 -0.525,0.181 -0.875,0.497 -1.093,0.852 -0.219,0.356 -0.394,0.806 -0.525,1.301 z m -0.656,2.381 0.131,0.04 c -0.044,0.198 -0.087,0.395 -0.131,0.544 0,-0.146 0,-0.34 0,-0.584 z"
           inkscape:connector-curvature="0"
           style="fill:#ffffcc" />
      </g>
      <animate
         attributeName="display"
         begin="0s"
         repeatCount="indefinite"
         dur="0.167s"
         keyTimes="0;0.798;1"
         values="none;inline;none"
         id="animate3304" />
    </g>
    <g
       id="backLegUpperRight2_2">
      <g
         id="element1">
        <path
           id="path2"
           d="m -0.368,-2.777 q 0.301,-0.014 0.569,0.011 c 1.18,0.067 2.099,0.201 2.711,0.403 1.093,0.317 1.968,0.551 2.711,0.745 1.793,1 3.411,2.304 4.767,4.016 0.656,0.784 1.181,1.625 1.574,2.524 0.132,0.77 -0.043,1.512 -0.524,2.177 -0.306,0.41 -0.569,0.866 -0.7,1.362 0.044,-0.052 0.044,-0.052 0.087,-0.055 -0.043,0.052 -0.043,0.1 -0.087,0.152 C 10.084,9.235 9.297,9.579 8.378,9.543 8.072,9.515 7.722,9.538 7.416,9.558 7.023,9.341 6.585,9.127 6.192,8.958 5.405,8.573 4.574,8.19 3.699,7.907 3.262,7.888 2.824,7.819 2.431,7.651 2.3,7.611 2.125,7.574 1.95,7.537 2.125,7.525 2.3,7.514 2.431,7.553 2.562,7.545 2.737,7.533 2.868,7.573 0.507,7.146 -1.111,6.037 -2.03,4.248 -2.423,3.446 -2.686,2.879 -2.861,2.55 c 0.044,0.241 0.044,0.533 0.088,0.871 0.044,0.971 0.393,1.678 1.006,2.172 0.481,0.747 1.224,1.282 2.274,1.602 C 0.813,7.32 1.075,7.4 1.381,7.429 1.25,7.437 1.075,7.449 0.944,7.409 2.431,7.992 3.918,8.574 5.361,9.111 6.017,9.36 6.717,9.605 7.416,9.802 c 0.306,0.126 0.656,0.248 0.962,0.325 0.044,-0.003 0.044,-0.003 0.088,-0.005 0.962,0.033 1.837,-0.512 2.58,-1.584 0.175,-0.207 0.262,-0.407 0.219,-0.599 0.481,-0.568 0.787,-1.319 0.918,-2.155 0.044,-0.1 0.044,-0.149 0.044,-0.198 0.087,0.14 0.131,0.332 0.175,0.475 C 12.314,4.12 11.571,2.465 10.128,1.1 8.859,-0.032 7.548,-1.065 6.192,-1.9 6.061,-1.988 5.886,-2.025 5.755,-2.065 5.273,-2.325 4.705,-2.482 4.093,-2.588 3.087,-2.861 1.6,-2.957 -0.368,-2.777 z"
           inkscape:connector-curvature="0"
           style="fill:#663300" />
        <path
           id="path3"
           d="m 0.201,-2.766 c 0.087,0.042 0.043,0.045 -0.132,0.106 -0.699,0.192 -1.005,0.408 -0.918,0.694 -0.131,0.106 -0.306,0.215 -0.437,0.37 0.131,-0.155 0.306,-0.215 0.437,-0.224 -0.656,0.433 -1.137,1.001 -1.443,1.654 -0.263,0.456 -0.437,0.954 -0.481,1.59 -0.044,0.052 -0.044,0.149 -0.088,0.201 -0.043,0.149 0,0.341 0.044,0.484 -0.044,-0.046 -0.087,-0.092 -0.131,-0.137 0.044,0.045 0.044,0.143 0.087,0.286 -0.131,-0.283 -0.131,-0.186 0,0.292 0.175,0.329 0.438,0.896 0.831,1.698 0.919,1.789 2.537,2.898 4.898,3.325 C 2.737,7.533 2.562,7.545 2.431,7.553 l 0,0.098 C 2.824,7.819 3.262,7.888 3.699,7.907 4.574,8.19 5.405,8.573 6.192,8.958 6.585,9.127 7.023,9.341 7.416,9.558 7.722,9.538 8.072,9.515 8.378,9.543 9.297,9.579 10.084,9.235 10.74,8.558 l 0,-0.122 0,0.025 C 10.871,7.965 11.134,7.509 11.44,7.099 11.921,6.434 12.096,5.692 11.964,4.922 11.571,4.023 11.046,3.182 10.39,2.398 9.034,0.686 7.416,-0.618 5.623,-1.618 4.88,-1.812 4.005,-2.046 2.912,-2.363 2.3,-2.565 1.381,-2.699 0.201,-2.766 z"
           inkscape:connector-curvature="0"
           style="fill:#ffffcc" />
      </g>
      <animate
         attributeName="display"
         begin="0s"
         repeatCount="indefinite"
         dur="0.167s"
         keyTimes="0;0.399;0.798;1"
         values="none;inline;none;none"
         id="animate3310" />
    </g>
    <g
       id="backLegUpperRight2_0">
      <g
         id="element">
        <path
           id="path"
           d="m -1.2,-1.3 q -0.4,0.3 -0.7,0.8 c -0.4,0.25 -0.7,0.95 -0.95,2.2 -0.15,0.65 -0.1,1.15 0.05,1.4 0.5,1 1,1.8 1.55,2.35 1.35,1.2 2.7,2 4.1,2.35 C 2.8,7.85 2.75,7.95 2.7,8 3.25,8.25 3.8,8.5 4.45,8.75 5.8,9.2 7.15,9.7 8.5,10.2 8.8,10.15 9.1,10.05 9.35,9.95 c 0.8,-0.35 1.4,-0.9 1.8,-1.7 -0.2,0.15 -0.4,0.3 -0.65,0.35 0.15,-0.35 0.35,-0.7 0.6,-0.95 0.05,-0.1 0.15,-0.2 0.25,-0.25 C 11.4,7.2 11.5,7 11.6,6.85 11.65,6.8 11.65,6.7 11.7,6.65 11.75,6.3 11.8,5.95 11.75,5.6 11.65,4.75 11.4,3.95 11,3.15 10.7,2.8 10.4,2.5 10.15,2.15 9.4,1.6 8.6,0.95 7.75,0.25 6.8,-0.6 5.85,-1.25 4.8,-1.7 4.4,-1.6 3.85,-1.7 3.15,-1.95 2.5,-2.1 1.5,-2.2 0.15,-2.15 c -0.05,0 -0.05,0 -0.1,0 l 0,0.05 c -0.45,0.2 -0.9,0.45 -1.25,0.8 z"
           inkscape:connector-curvature="0"
           style="fill:#ffffcc" />
        <path
           id="path1"
           d="m 1.6,-2.55 c -0.35,-0.05 -0.9,0.05 -1.55,0.3 0,0.05 0.05,0.05 0.1,0.1 1.35,-0.05 2.35,0.05 3,0.2 0.7,0.25 1.25,0.35 1.65,0.25 1.05,0.45 2,1.1 2.95,1.95 0.85,0.7 1.65,1.35 2.4,1.9 0.25,0.35 0.55,0.65 0.85,1 0.4,0.8 0.65,1.6 0.75,2.45 0.05,0.35 0,0.7 -0.05,1.05 C 11.65,6.7 11.65,6.8 11.6,6.85 11.5,7 11.4,7.2 11.35,7.4 c -0.1,0.05 -0.2,0.15 -0.25,0.25 -0.25,0.25 -0.45,0.6 -0.6,0.95 0.25,-0.05 0.45,-0.2 0.65,-0.35 -0.4,0.8 -1,1.35 -1.8,1.7 C 9.1,10.05 8.8,10.15 8.5,10.2 7.15,9.7 5.8,9.2 4.45,8.75 3.8,8.5 3.25,8.25 2.7,8 2.75,7.95 2.8,7.85 2.85,7.8 1.45,7.45 0.1,6.65 -1.25,5.45 -1.8,4.9 -2.3,4.1 -2.8,3.1 c 0.65,2.35 1.7,3.85 3.15,4.5 -0.1,0 -0.2,0 -0.3,0.05 2,0.65 4.05,1.4 6.1,2.15 0.6,0.3 1.25,0.45 1.9,0.5 -0.05,0.05 -0.1,0.05 -0.15,0.1 1.3,0.45 2.35,0 3.15,-1.35 C 11.3,8.65 11.4,8.3 11.4,8 11.65,7.7 11.85,7.4 12.05,7.05 12.1,6.9 12.2,6.75 12.25,6.6 12.3,6.4 12.35,6.2 12.35,6.05 L 12.4,6.1 C 12.45,5.35 12.3,4.65 12.05,4 11.75,3.25 11.25,2.55 10.6,1.85 9.85,0.95 8.95,0.15 7.95,-0.5 8.2,-0.15 8.5,0.2 8.85,0.55 8.6,0.3 8.3,0.05 8.05,-0.2 7.45,-0.65 6.8,-1.1 6.15,-1.55 5.5,-1.8 4.85,-2 4.2,-2.2 3.75,-2.35 3.25,-2.4 2.8,-2.4 c 0.35,0.1 0.7,0.2 1,0.25 C 3.05,-2.3 2.35,-2.4 1.6,-2.55 z"
           inkscape:connector-curvature="0"
           style="fill:#663300" />
      </g>
      <animate
         attributeName="display"
         begin="0s"
         repeatCount="indefinite"
         dur="0.167s"
         keyTimes="0;0.399;1"
         values="inline;none;none"
         id="animate3316" />
    </g>
  </g>
</svg>

<?xml version="1.0" encoding="utf-8"?>
<!-- Generator: flash2svg, http://dissentgraphics.com/tools/flash2svg -->
<svg xmlns:xlink="http://www.w3.org/1999/xlink" id="Avatar" image-rendering="auto" baseProfile="basic" version="1.1" x="0px" y="0px" width="68" height="126" xmlns="http://www.w3.org/2000/svg" viewBox="0 0 68 126">
  <defs/>
  <g id="backLegUpperRight3" overflow="visible">
    <g id="backLegUpperRight2_4">
      <g id="element2">
        <path id="path10" fill="#630" d="M8.203,-0.427 Q6.935,-1.56 5.492,-2.048 C4.224,-2.694 2.475,-2.918 0.244,-2.721 1.95,-2.786 3.655,-2.412 5.405,-1.604 7.154,-0.844 8.597,0.18 9.734,1.467 10.827,2.661 11.44,3.788 11.615,4.897 11.746,6.008 11.702,6.79 11.44,7.148 11.396,7.2 11.308,7.352 11.221,7.503 L11.265,7.403 C11.221,7.455 11.221,7.503 11.177,7.555 11.134,7.704 11.046,7.856 10.959,8.008 10.478,9.062 9.647,9.605 8.466,9.586 8.116,9.561 7.766,9.633 7.416,9.705 6.892,9.399 6.323,9.144 5.755,8.988 4.705,8.619 3.699,8.199 2.737,7.63 2.693,7.585 2.65,7.588 2.606,7.542 2.125,7.428 1.6,7.268 1.119,7.105 1.031,7.062 0.55,6.705 -0.324,6.13 -1.243,5.51 -2.117,4.253 -2.861,2.404 -2.904,2.358 -2.904,2.358 -2.948,2.312 -2.992,2.559 -2.948,2.848 -2.861,3.134 -2.773,3.81 -2.598,4.383 -2.336,4.804 -1.986,5.803 -1.111,6.524 0.244,7.018 0.288,7.063 0.332,7.06 0.376,7.057 1.994,7.875 3.655,8.592 5.317,9.309 5.798,9.52 6.323,9.729 6.804,9.843 7.504,10.186 8.16,10.288 8.772,10.199 8.728,10.25 8.641,10.256 8.597,10.308 9.297,10.407 9.953,10.12 10.609,9.443 10.827,9.185 10.915,8.936 10.871,8.793 10.565,9.251 10.215,9.615 9.778,9.791 10.171,9.521 10.521,9.206 10.827,8.747 L10.827,8.698 C10.915,8.546 10.959,8.446 11.002,8.394 12.577,6.926 12.795,5.256 11.658,3.433 11.352,2.918 11.002,2.405 10.609,1.993 L10.587,1.971 L10.609,1.993 C10.565,1.948 10.478,1.856 10.434,1.81 9.69,1.032 8.947,0.254 8.203,-0.427z"/>
        <path id="path11" fill="#FFC" d="M-1.811,-0.052 C-1.855,0.097 -2.117,0.309 -2.511,0.579 -2.642,0.637 -2.686,0.737 -2.686,0.834 -2.729,0.935 -2.773,1.035 -2.817,1.086 -2.817,1.281 -2.773,1.522 -2.686,1.808 -2.773,1.716 -2.861,1.625 -2.904,1.53 -2.948,1.777 -2.948,2.069 -2.948,2.312 -2.904,2.358 -2.904,2.358 -2.861,2.404 -2.117,4.253 -1.243,5.51 -0.324,6.13 0.55,6.705 1.031,7.062 1.119,7.105 1.6,7.268 2.125,7.428 2.606,7.542 2.65,7.588 2.693,7.585 2.737,7.63 3.699,8.199 4.705,8.619 5.755,8.988 6.323,9.144 6.892,9.399 7.416,9.705 7.766,9.633 8.116,9.561 8.466,9.586 9.647,9.605 10.478,9.062 10.959,8.008 11.046,7.856 11.134,7.704 11.177,7.555 11.221,7.503 11.221,7.455 11.265,7.403 L11.221,7.503 C11.308,7.352 11.396,7.2 11.44,7.148 11.702,6.79 11.746,6.008 11.615,4.897 11.44,3.788 10.827,2.661 9.734,1.467 8.597,0.18 7.154,-0.844 5.405,-1.604 3.655,-2.412 1.95,-2.786 0.244,-2.721 0.944,-2.719 1.206,-2.639 0.988,-2.575 0.594,-2.501 0.201,-2.377 -0.193,-2.205 -0.718,-2.024 -1.068,-1.708 -1.286,-1.353 -1.505,-0.997 -1.68,-0.547 -1.811,-0.052z M-2.467,2.329 L-2.336,2.369 C-2.38,2.567 -2.423,2.764 -2.467,2.913 -2.467,2.767 -2.467,2.573 -2.467,2.329z"/>
      </g>
      <animate attributeName="display" begin="0s" repeatCount="indefinite" dur="0.167s" keyTimes="0;0.798;1" values="none;inline;none"/>
    </g>
    <g id="backLegUpperRight2_2">
      <g id="element1">
        <path id="path2" fill="#630" d="M-0.368,-2.777 Q-0.067,-2.791 0.201,-2.766 C1.381,-2.699 2.3,-2.565 2.912,-2.363 4.005,-2.046 4.88,-1.812 5.623,-1.618 7.416,-0.618 9.034,0.686 10.39,2.398 11.046,3.182 11.571,4.023 11.964,4.922 12.096,5.692 11.921,6.434 11.44,7.099 11.134,7.509 10.871,7.965 10.74,8.461 10.784,8.409 10.784,8.409 10.827,8.406 10.784,8.458 10.784,8.506 10.74,8.558 10.084,9.235 9.297,9.579 8.378,9.543 8.072,9.515 7.722,9.538 7.416,9.558 7.023,9.341 6.585,9.127 6.192,8.958 5.405,8.573 4.574,8.19 3.699,7.907 3.262,7.888 2.824,7.819 2.431,7.651 2.3,7.611 2.125,7.574 1.95,7.537 2.125,7.525 2.3,7.514 2.431,7.553 2.562,7.545 2.737,7.533 2.868,7.573 0.507,7.146 -1.111,6.037 -2.03,4.248 -2.423,3.446 -2.686,2.879 -2.861,2.55 -2.817,2.791 -2.817,3.083 -2.773,3.421 -2.729,4.392 -2.38,5.099 -1.767,5.593 -1.286,6.34 -0.543,6.875 0.507,7.195 0.813,7.32 1.075,7.4 1.381,7.429 1.25,7.437 1.075,7.449 0.944,7.409 2.431,7.992 3.918,8.574 5.361,9.111 6.017,9.36 6.717,9.605 7.416,9.802 7.722,9.928 8.072,10.05 8.378,10.127 8.422,10.124 8.422,10.124 8.466,10.122 9.428,10.155 10.303,9.61 11.046,8.538 11.221,8.331 11.308,8.131 11.265,7.939 11.746,7.371 12.052,6.62 12.183,5.784 12.227,5.684 12.227,5.635 12.227,5.586 12.314,5.726 12.358,5.918 12.402,6.061 12.314,4.12 11.571,2.465 10.128,1.1 8.859,-0.032 7.548,-1.065 6.192,-1.9 6.061,-1.988 5.886,-2.025 5.755,-2.065 5.273,-2.325 4.705,-2.482 4.093,-2.588 3.087,-2.861 1.6,-2.957 -0.368,-2.777z"/>
        <path id="path3" fill="#FFC" d="M0.201,-2.766 C0.288,-2.724 0.244,-2.721 0.069,-2.66 -0.63,-2.468 -0.936,-2.252 -0.849,-1.966 -0.98,-1.86 -1.155,-1.751 -1.286,-1.596 -1.155,-1.751 -0.98,-1.811 -0.849,-1.82 -1.505,-1.387 -1.986,-0.819 -2.292,-0.166 -2.555,0.29 -2.729,0.788 -2.773,1.424 -2.817,1.476 -2.817,1.573 -2.861,1.625 -2.904,1.774 -2.861,1.966 -2.817,2.109 -2.861,2.063 -2.904,2.017 -2.948,1.972 -2.904,2.017 -2.904,2.115 -2.861,2.258 -2.992,1.975 -2.992,2.072 -2.861,2.55 -2.686,2.879 -2.423,3.446 -2.03,4.248 -1.111,6.037 0.507,7.146 2.868,7.573 2.737,7.533 2.562,7.545 2.431,7.553 L2.431,7.651 C2.824,7.819 3.262,7.888 3.699,7.907 4.574,8.19 5.405,8.573 6.192,8.958 6.585,9.127 7.023,9.341 7.416,9.558 7.722,9.538 8.072,9.515 8.378,9.543 9.297,9.579 10.084,9.235 10.74,8.558 L10.74,8.436 L10.74,8.461 C10.871,7.965 11.134,7.509 11.44,7.099 11.921,6.434 12.096,5.692 11.964,4.922 11.571,4.023 11.046,3.182 10.39,2.398 9.034,0.686 7.416,-0.618 5.623,-1.618 4.88,-1.812 4.005,-2.046 2.912,-2.363 2.3,-2.565 1.381,-2.699 0.201,-2.766z"/>
      </g>
      <animate attributeName="display" begin="0s" repeatCount="indefinite" dur="0.167s" keyTimes="0;0.399;0.798;1" values="none;inline;none;none"/>
    </g>
    <g id="backLegUpperRight2_0">
      <g id="element">
        <path id="path" fill="#FFC" d="M-1.2,-1.3 Q-1.6,-1 -1.9,-0.5 C-2.3,-0.25 -2.6,0.45 -2.85,1.7 -3,2.35 -2.95,2.85 -2.8,3.1 -2.3,4.1 -1.8,4.9 -1.25,5.45 0.1,6.65 1.45,7.45 2.85,7.8 2.8,7.85 2.75,7.95 2.7,8 3.25,8.25 3.8,8.5 4.45,8.75 5.8,9.2 7.15,9.7 8.5,10.2 8.8,10.15 9.1,10.05 9.35,9.95 10.15,9.6 10.75,9.05 11.15,8.25 10.95,8.4 10.75,8.55 10.5,8.6 10.65,8.25 10.85,7.9 11.1,7.65 11.15,7.55 11.25,7.45 11.35,7.4 11.4,7.2 11.5,7 11.6,6.85 11.65,6.8 11.65,6.7 11.7,6.65 11.75,6.3 11.8,5.95 11.75,5.6 11.65,4.75 11.4,3.95 11,3.15 10.7,2.8 10.4,2.5 10.15,2.15 9.4,1.6 8.6,0.95 7.75,0.25 6.8,-0.6 5.85,-1.25 4.8,-1.7 4.4,-1.6 3.85,-1.7 3.15,-1.95 2.5,-2.1 1.5,-2.2 0.15,-2.15 0.1,-2.15 0.1,-2.15 0.05,-2.15 L0.05,-2.1 C-0.4,-1.9 -0.85,-1.65 -1.2,-1.3z"/>
        <path id="path1" fill="#630" d="M1.6,-2.55 C1.25,-2.6 0.7,-2.5 0.05,-2.25 0.05,-2.2 0.1,-2.2 0.15,-2.15 1.5,-2.2 2.5,-2.1 3.15,-1.95 3.85,-1.7 4.4,-1.6 4.8,-1.7 5.85,-1.25 6.8,-0.6 7.75,0.25 8.6,0.95 9.4,1.6 10.15,2.15 10.4,2.5 10.7,2.8 11,3.15 11.4,3.95 11.65,4.75 11.75,5.6 11.8,5.95 11.75,6.3 11.7,6.65 11.65,6.7 11.65,6.8 11.6,6.85 11.5,7 11.4,7.2 11.35,7.4 11.25,7.45 11.15,7.55 11.1,7.65 10.85,7.9 10.65,8.25 10.5,8.6 10.75,8.55 10.95,8.4 11.15,8.25 10.75,9.05 10.15,9.6 9.35,9.95 9.1,10.05 8.8,10.15 8.5,10.2 7.15,9.7 5.8,9.2 4.45,8.75 3.8,8.5 3.25,8.25 2.7,8 2.75,7.95 2.8,7.85 2.85,7.8 1.45,7.45 0.1,6.65 -1.25,5.45 -1.8,4.9 -2.3,4.1 -2.8,3.1 -2.15,5.45 -1.1,6.95 0.35,7.6 0.25,7.6 0.15,7.6 0.05,7.65 2.05,8.3 4.1,9.05 6.15,9.8 6.75,10.1 7.4,10.25 8.05,10.3 8,10.35 7.95,10.35 7.9,10.4 9.2,10.85 10.25,10.4 11.05,9.05 11.3,8.65 11.4,8.3 11.4,8 11.65,7.7 11.85,7.4 12.05,7.05 12.1,6.9 12.2,6.75 12.25,6.6 12.3,6.4 12.35,6.2 12.35,6.05 L12.4,6.1 C12.45,5.35 12.3,4.65 12.05,4 11.75,3.25 11.25,2.55 10.6,1.85 9.85,0.95 8.95,0.15 7.95,-0.5 8.2,-0.15 8.5,0.2 8.85,0.55 8.6,0.3 8.3,0.05 8.05,-0.2 7.45,-0.65 6.8,-1.1 6.15,-1.55 5.5,-1.8 4.85,-2 4.2,-2.2 3.75,-2.35 3.25,-2.4 2.8,-2.4 3.15,-2.3 3.5,-2.2 3.8,-2.15 3.05,-2.3 2.35,-2.4 1.6,-2.55z"/>
      </g>
      <animate attributeName="display" begin="0s" repeatCount="indefinite" dur="0.167s" keyTimes="0;0.399;1" values="inline;none;none"/>
    </g>
  </g>
</svg>
